X:1
T:Dusty Bob's Jig Counterpoint
C:copyright 1998 Jim Thompson
N:To be played with ``Dusty Bob's Jig''
R:Jig
E:20
M:6/8
K:G
|:d'c'b d'3|c'ba c'3|gab abc'|bc'd' d'3|
d'c'b d'3|c'ba c'3|gab fga|bag g3:|
d'c'b b3|c'ba a3|gab c'd'e'|d'c'b a3|
d'c'b b3|c'ba a3|d'c'b c'ba|bag g3|
d'c'b b3|aba a3|gab c'd'e'|d'c'b a3|
bag g3|c'ba a3|fde fga|bag g3|]
\bigskip
